X: 203
T: Wuyue sanhua
%%abc-version 2.0
%%abcx-abcm2ps-target-version 5.9.1 (29 Sep 2008)
%%abc-creator hum2abc beta
%%abcx-conversion-date 2013/10/02 07:52:29
%%abc-edited-by Helmut Schaffrath
%%humdrum-veritas 1227981742
%%humdrum-veritas-data 3900107996
%%continueall 1
%%barnumbers 0
L: 1/8
M: 2/4
K: G
d eg2 [I:setbarnb 1]| 
g ed2 | 
e e/ g/ d B | 
A B/ d/A2 | 
d eg2 | 
g ed2 | 
d> e d B | 
A BA2 | 
d Bd2 | 
G/ A/ B/ d/A2 | 
d B d d | 
G B A B | 
G4 | 
d> g e d | 
B B B B | 
A> Bd2 | 
e EG2 | 
A A/ B/ G E | 
D4 | 
G G E D | 
G G E D | 
A> Bd2 | 
e dG2 | 
A/ A/ B G G/ E/ | 
D4 | 
d> g e/ g/ e/ d/ | 
g Bd2 | 
A> d B/ d/ B/ A/ | 
d EG2 | 
A B A B | 
e EG2 | 
A/ A/ B G G/ E/ | 
D4 |]  



